brandFactory_export/3.Masa/Power_3Masa.svg

<?xml version="1.0" encoding="UTF-8"?>
<svg width="24px" height="24px" viewBox="0 0 24 24" version="1.1" xmlns="http://www.w3.org/2000/svg" xmlns:xlink="http://www.w3.org/1999/xlink">
    <title>3.Masa/Power_3Masa</title>
    <g id="Symbols" stroke="none" stroke-width="1" fill="none" fill-rule="evenodd">
        <g id="3.Masa/Power_3Masa" fill="#5CB615" fill-rule="nonzero">
            <path d="M20.5210084,2.92436975 C18.5142857,0.991596639 15.5932773,0.0100840336 11.8352941,0.0100840336 C8.07731092,0.0100840336 5.15966387,0.991596639 3.15630252,2.92436975 C1.07563025,4.93445378 0.0201680672,7.92941176 0.0201680672,11.8352941 C0.0201680672,15.7411765 1.07563025,18.7361345 3.15630252,20.7428571 C5.16302521,22.6756303 8.08403361,23.6571429 11.8386555,23.6571429 C15.5932773,23.6571429 18.5176471,22.6756303 20.5243697,20.7428571 C22.6084034,18.7361345 23.6638655,15.7378151 23.6638655,11.8352941 C23.6638655,7.93277311 22.605042,4.93445378 20.5210084,2.92436975 Z M11.2268908,3.29411765 C11.2268908,2.92436975 11.5294118,2.62184874 11.8991597,2.62184874 C12.2689076,2.62184874 12.5714286,2.92436975 12.5714286,3.29411765 L12.5714286,8.21176471 C12.5714286,8.58151261 12.2689076,8.88403361 11.8991597,8.88403361 C11.5294118,8.88403361 11.2268908,8.58151261 11.2268908,8.21176471 L11.2268908,3.29411765 Z M17.2773109,17.3411765 C16.0336134,18.5411765 14.2352941,19.1462185 11.9294118,19.1462185 C9.62352941,19.1462185 7.82857143,18.5378151 6.58487395,17.3378151 C5.29411765,16.0941176 4.63865546,14.2453782 4.63865546,11.8521008 C4.63865546,9.86218487 5.09243697,8.24537815 5.98991597,7.04201681 C6.87731092,5.85546218 8.17478992,5.08235294 9.85210084,4.74957983 C10.2151261,4.67563025 10.5714286,4.91428571 10.6420168,5.27731092 C10.7159664,5.64033613 10.4773109,5.99663866 10.1142857,6.06722689 C7.33109244,6.62184874 5.97983193,8.51428571 5.97983193,11.8521008 C5.97983193,13.8689076 6.49747899,15.3882353 7.51596639,16.3697479 C8.50084034,17.3176471 9.98655462,17.7983193 11.9294118,17.7983193 C13.8722689,17.7983193 15.3579832,17.3176471 16.3428571,16.3697479 C17.3613445,15.3882353 17.8789916,13.8655462 17.8789916,11.8521008 C17.8789916,8.46722689 16.487395,6.56806723 13.6268908,6.04369748 C13.2605042,5.97647059 13.0184874,5.62689076 13.0857143,5.2605042 C13.1529412,4.89411765 13.502521,4.65210084 13.8689076,4.71932773 C15.589916,5.03529412 16.9210084,5.79831933 17.8319328,6.98823529 C18.7563025,8.19831933 19.2235423,9.83193277 19.2235423,11.8487395 C19.2268908,14.2487395 18.5714286,16.0941176 17.2773109,17.3411765 L17.2773109,17.3411765 Z" id="Power_3Masa"></path>
        </g>
    </g>
</svg>

<svg width="24" height="24" viewBox="0 0 24 24" xmlns="http://www.w3.org/2000/svg"><path d="M20.521 2.924C18.514.992 15.593.01 11.835.01S5.16.992 3.156 2.924C1.076 4.934.02 7.93.02 11.835c0 3.906 1.056 6.901 3.136 8.908 2.007 1.933 4.928 2.914 8.683 2.914 3.754 0 6.679-.981 8.685-2.914 2.084-2.007 3.14-5.005 3.14-8.908 0-3.902-1.059-6.9-3.143-8.91zm-9.294.37c0-.37.302-.672.672-.672.37 0 .672.302.672.672v4.918c0 .37-.302.672-.672.672a.674.674 0 01-.672-.672V3.294zm6.05 14.047c-1.243 1.2-3.042 1.805-5.348 1.805-2.305 0-4.1-.608-5.344-1.808-1.29-1.244-1.946-3.093-1.946-5.486 0-1.99.453-3.607 1.35-4.81.888-1.187 2.186-1.96 3.863-2.292a.67.67 0 11.262 1.317c-2.783.555-4.134 2.447-4.134 5.785 0 2.017.517 3.536 1.536 4.518.985.948 2.47 1.428 4.413 1.428s3.429-.48 4.414-1.428c1.018-.982 1.536-2.504 1.536-4.518 0-3.385-1.392-5.284-4.252-5.808a.672.672 0 11.242-1.325c1.72.316 3.052 1.08 3.963 2.27.924 1.21 1.392 2.843 1.392 4.86.003 2.4-.653 4.245-1.947 5.492z" fill="#5CB615" fill-rule="nonzero"/></svg>
